front/public/static/landing/logos/white/fleet.svg

<svg fill="none" height="240" viewBox="0 0 600 240" width="600" xmlns="http://www.w3.org/2000/svg" xmlns:xlink="http://www.w3.org/1999/xlink"><clipPath id="a"><path d="m146 71h308v98.6387h-308z"/></clipPath><g clip-path="url(#a)"><g fill="#fff"><path d="m268.758 80.5547c-9.282 2.3606-13.894 9.5547-13.894 21.6953v4.159h-4.501-4.5v5.901 5.902h4.5 4.501v21.076 21.077h7.031 7.032v-21.077-21.076h10.969 10.969v21.076 21.077h6.751 6.75v-39.905-39.9053h-6.75-6.751v12.927 12.9273h-10.969-10.969v-4.272c0-5.6203 1.069-7.8684 4.388-9.3297 1.912-.8431 3.093-1.0117 5.231-.7307l2.756.3934v-5.6204c0-3.8219-.225-5.7891-.675-6.0701-1.068-.6744-9.45-.7868-11.869-.2248z"/><path d="m430.934 95.5613c0 4.4967-.225 5.8457-1.125 7.3067-1.406 2.304-3.825 3.541-7.032 3.541h-2.531v5.901 5.902h4.725 4.726l.225 15.568c.168 14.894.225 15.738 1.462 18.435 2.813 6.07 7.032 8.431 15.301 8.431 7.594 0 7.313.225 7.313-6.295v-5.508h-3.713c-3.375 0-3.825-.169-5.063-1.574-1.35-1.573-1.35-1.63-1.35-15.343v-13.714h5.063 5.063v-5.902-5.901h-5.063-5.063v-8.1499-8.1496h-6.469-6.469z"/><path d="m331.651 105.509c-8.719 2.136-15.751 8.712-18.901 17.817-1.744 5.115-1.8 13.827-.112 19.335 4.612 14.838 19.294 22.313 35.045 17.873 4.05-1.125 7.257-3.035 10.407-6.183 2.475-2.529 5.344-7.419 5.344-9.105 0-.618-1.575-1.349-5.232-2.473-2.812-.843-5.4-1.574-5.738-1.518-.281 0-1.237 1.237-2.081 2.811-5.006 9.049-19.295 7.868-23.851-1.967-2.419-5.171-3.938-4.778 18.001-4.778h19.407l.338-2.417c.45-3.091-.619-11.016-1.969-14.5-3.263-8.262-9.62-13.489-18.282-15.063-4.163-.787-8.776-.731-12.376.168zm10.069 11.073c4.219 1.068 7.369 4.384 8.494 9.049l.394 1.573h-12.488-12.488l.337-1.742c.732-3.766 4.107-7.475 7.932-8.824 2.25-.787 4.894-.787 7.819-.056z"/><path d="m387.621 105.341c-4.051.787-9.226 3.653-12.488 6.969-7.37 7.307-10.013 18.21-7.201 29.226 1.294 4.946 3.094 8.375 6.301 11.86 9.731 10.566 28.295 11.297 38.701 1.573 2.982-2.754 6.751-9.442 5.851-10.285-.675-.618-9.226-3.429-10.463-3.429-.563 0-1.35.844-1.913 1.968-2.925 6.182-10.857 8.767-17.382 5.676-4.444-2.079-8.157-6.857-8.157-10.454 0-1.068.338-1.124 19.295-1.236l19.238-.169.169-4.609c.394-11.128-4.669-20.795-13.05-24.842-5.007-2.473-12.995-3.372-18.901-2.248zm12.263 12.252c2.7 1.406 5.062 4.609 5.569 7.588l.337 2.023h-12.488-12.488l.338-1.292c1.35-4.328 4.387-7.757 8.213-9.218 2.587-.955 7.706-.562 10.519.899z"/></g><path d="m224.959 77.2766c2.975-1.1817 6.102 1.3324 5.586 4.4916l-10.988 67.3498c-.508 3.115-4.187 4.525-6.647 2.547l-52.43-42.156c-2.46-1.978-1.874-5.875 1.06-7.04z" stroke="#fff" stroke-width="8.23888"/><path d="m201.88 106.291c2.975-1.181 6.103 1.333 5.587 4.492l-8.223 50.4c-.508 3.115-4.188 4.525-6.648 2.547l-39.235-31.547c-2.46-1.978-1.873-5.874 1.06-7.039z" stroke="#fff" stroke-width="8.23888"/></g></svg>

<svg width="600" height="240" viewBox="0 0 600 240" fill="none" xmlns="http://www.w3.org/2000/svg">
<g clip-path="url(#clip0_1909_4555)">
<path d="M268.758 80.5547C259.476 82.9153 254.864 90.1094 254.864 102.25V106.409H250.363H245.863V112.31V118.212H250.363H254.864V139.288V160.365H261.895H268.927V139.288V118.212H279.896H290.865V139.288V160.365H297.616H304.366V120.46V80.5547H297.616H290.865V93.4817V106.409H279.896H268.927V102.137C268.927 96.5167 269.996 94.2686 273.315 92.8073C275.227 91.9642 276.408 91.7956 278.546 92.0766L281.302 92.47V86.8496C281.302 83.0277 281.077 81.0605 280.627 80.7795C279.559 80.1051 271.177 79.9927 268.758 80.5547Z" fill="white"/>
<path d="M430.934 95.5613C430.934 100.058 430.709 101.407 429.809 102.868C428.403 105.172 425.984 106.409 422.777 106.409H420.246V112.31V118.212H424.971H429.697L429.922 133.78C430.09 148.674 430.147 149.518 431.384 152.215C434.197 158.285 438.416 160.646 446.685 160.646C454.279 160.646 453.998 160.871 453.998 154.351V148.843H450.285C446.91 148.843 446.46 148.674 445.222 147.269C443.872 145.696 443.872 145.639 443.872 131.926V118.212H448.935H453.998V112.31V106.409H448.935H443.872V98.2591V90.1095H437.403H430.934V95.5613Z" fill="white"/>
<path d="M331.651 105.509C322.932 107.645 315.9 114.221 312.75 123.326C311.006 128.441 310.95 137.153 312.638 142.661C317.25 157.499 331.932 164.974 347.683 160.534C351.733 159.409 354.94 157.499 358.09 154.351C360.565 151.822 363.434 146.932 363.434 145.246C363.434 144.628 361.859 143.897 358.202 142.773C355.39 141.93 352.802 141.199 352.464 141.255C352.183 141.255 351.227 142.492 350.383 144.066C345.377 153.115 331.088 151.934 326.532 142.099C324.113 136.928 322.594 137.321 344.533 137.321H363.94L364.278 134.904C364.728 131.813 363.659 123.888 362.309 120.404C359.046 112.142 352.689 106.915 344.027 105.341C339.864 104.554 335.251 104.61 331.651 105.509ZM341.72 116.582C345.939 117.65 349.089 120.966 350.214 125.631L350.608 127.204H338.12H325.632L325.969 125.462C326.701 121.696 330.076 117.987 333.901 116.638C336.151 115.851 338.795 115.851 341.72 116.582Z" fill="white"/>
<path d="M387.621 105.341C383.57 106.128 378.395 108.994 375.133 112.31C367.763 119.617 365.12 130.52 367.932 141.536C369.226 146.482 371.026 149.911 374.233 153.396C383.964 163.962 402.528 164.693 412.934 154.969C415.916 152.215 419.685 145.527 418.785 144.684C418.11 144.066 409.559 141.255 408.322 141.255C407.759 141.255 406.972 142.099 406.409 143.223C403.484 149.405 395.552 151.99 389.027 148.899C384.583 146.82 380.87 142.042 380.87 138.445C380.87 137.377 381.208 137.321 400.165 137.209L419.403 137.04L419.572 132.431C419.966 121.303 414.903 111.636 406.522 107.589C401.515 105.116 393.527 104.217 387.621 105.341ZM399.884 117.593C402.584 118.999 404.946 122.202 405.453 125.181L405.79 127.204H393.302H380.814L381.152 125.912C382.502 121.584 385.539 118.155 389.365 116.694C391.952 115.739 397.071 116.132 399.884 117.593Z" fill="white"/>
<path d="M224.959 77.2766C227.934 76.0949 231.061 78.609 230.545 81.7682L219.557 149.118C219.049 152.233 215.37 153.643 212.91 151.665L160.48 109.509C158.02 107.531 158.606 103.634 161.54 102.469L224.959 77.2766Z" stroke="white" stroke-width="8.23888"/>
<path d="M201.88 106.291C204.855 105.11 207.983 107.624 207.467 110.783L199.244 161.183C198.736 164.298 195.056 165.708 192.596 163.73L153.361 132.183C150.901 130.205 151.488 126.309 154.421 125.144L201.88 106.291Z" stroke="white" stroke-width="8.23888"/>
</g>
<defs>
<clipPath id="clip0_1909_4555">
<rect width="308" height="98.6387" fill="white" transform="translate(146 71)"/>
</clipPath>
</defs>
</svg>
